X: 25642
T: Martin O'Connor's
R: polka
M: 2/4
K: Gmajor
|:e>d|BA AG/A/|BG G2|BA g>a|ge ed|
BA A>A|BG G>G|BA gg|e2:|
|:ed|Bg g>a|ba ab/a/|g2 g>a|ge ed|
Bg ga|ba ab|ga/g/ fd|e2:|

